X:1
T:9 Catches
T:9 Catches
T:Henry Purcell
C:Henry Purcell
L:1/8
Q:1/4=120
M:3/4
K:D
V:1 treble nm="Voice"
V:1
 D2 | A2 A2 A2 | B2 (Bc) d2 | G2 (GA) B2 | A4 A2 | d D3 d2 | e2 c2 de | (e3 d) e2 | f4 | ed | %10
w: Sir|Wal- ter, en-|joy- ing * his|Dam- sel * one|night, He|ti- ckl'd and|pleas'd her to so|great * a|height,|that she|
w: ||||||||||
w: ||||||||||
w: ||||||||||
w: ||||||||||
w: ||||||||||
w: ||||||||||
w: ||||||||||
w: ||||||||||
w: ||||||||||
 e2 A2 c2 | d4 dc | B3 c d2 | c2 c2 de | f d3 f2 | g4 a2 | c4 c2 | d2 d2 | a2 | ag g g2 g | %20
w: could not con-|tain t'wards the|end of the|mat- ter, but in|Rap- ture cry'd|out, O|sweet Sir|Wal- ter,|O|sweet Sir Wal- ter, O|
w: ||||||||||
w: ||||||||||
w: ||||||||||
w: ||||||||||
w: ||||||||||
w: ||||||||||
w: ||||||||||
w: ||||||||||
w: ||||||||||
 gf f f2 f | f e3 ed | e2 e2 a2 | af fd BG | EF GE FG | AG AF GA | D2 D2 |] %27
w: sweet Sir Wal- ter, O|sweet Sir, sweet Sir|Wal- ter, O|swit- ter swat- ter swit- ter|swat- ter swit- ter swat- ter|swit- ter swat- ter swit- ter|swat- ter.|
w: |||||||
w: |||||||
w: |||||||
w: |||||||
w: |||||||
w: |||||||
w: |||||||
w: |||||||
w: |||||||
[K:G][M:3/4]"^Catch Club I / 17" Bc | d3 e f2 | g2 d2 ef | g3 f g2 | (a6 | a2) d2 g2 | fe de dc | %34
w: |||||||
w: |||||||
w: He that|drinks is Im-|mor- tal, he that|drinks is Im-|mor-|* tal, and|can * ne'er * de- *|
w: |||||||
w: |||||||
w: |||||||
w: |||||||
w: |||||||
w: |||||||
w: |||||||
 B4 | G2 | B2 Bc d2 | G4 d2 | e2 c3 B | A4 =f2 | ed edcB | AG F3 G | G4 | z2 | d2 | B3 A G2 | %46
w: ||||||||||||
w: ||||||||||||
w: cay,|For|wine still * sup-|plys, for|wine still sup-|plys what|Age * wears * * *|* * * a-|way,||how|can he be|
w: ||||||||||||
w: ||||||||||||
w: ||||||||||||
w: ||||||||||||
w: ||||||||||||
w: ||||||||||||
w: ||||||||||||
 E4 e2 | c2 B2 A2 | F4 G2 | D3 C D2 | G4 |][K:Gmin][M:2/2]"^Catch Club II / 16" d | d2 g2 ^f3 f | %53
w: |||||If||
w: |||||||
w: Dust, how|can he be|Dust that|mois- tens his|Clay.|||
w: ||||||all be true that|
w: |||||||
w: |||||||
w: |||||||
w: |||||||
w: |||||||
w: |||||||
 g2 d2 f3 e | d2 G2 c2 ^FF | G2 E2 D2 G2 | G3 ^F G4 | z2 G2 D4 | z2 B2 F4 | z fdB e2 z2 | %60
w: |||||||
w: |||||||
w: |||||||
w: I do think, There|are Five Rea- sons, there|are Five Rea- sons|we should Drink:|Good wine,|a Friend|or be- ing Dry,|
w: |||||||
w: |||||||
w: |||||||
w: |||||||
w: |||||||
w: |||||||
 z dgf ^f2 gd | B3 A/G/ G4 | z4 z Adc | BABG z Adc | BABG z Adc | BABG d2 BG | D3 D G3 |] %67
w: |||||||
w: |||||||
w: |||||||
w: Or least, we should be *|by and * by,|Or a- ny|o- ther Rea- son, or a- ny|o- ther Rea- son; Or a- ny|o- ther Rea- son why, a- ny|Rea- son why.|
w: |||||||
w: |||||||
w: |||||||
w: |||||||
w: |||||||
w: |||||||
[K:Dmin][M:2/2] FDA>A d3 d | (d/c/) (B/A/) (B/A/) (G/F/) c3 c | cGGA B2 A2 | (G/F/) (E/D<)AA/ D4 | %71
w: ||||
w: ||||
w: ||||
w: ||||
w: Here's a health, a health, Pray|let * it * pays * a- * bout, A|health that ne'er shall cease Till|all * our * Wine is out.|
w: ||||
w: ||||
w: ||||
w: ||||
w: ||||
 dde (d/e/) f3 f | ecf (e/f/) g3 g | ge (e/g/f/)e/ (d/^c/d/e/ f/e/f/d/) | ef (g/f/) (e/d/) d3 d | %75
w: ||||
w: ||||
w: ||||
w: ||||
w: There- fore drink a- * way, And|ne- ver let it * stand, But|ply it close- * * ly round * * * * * * *|* From hand * to * hand. And|
w: ||||
w: ||||
w: ||||
w: ||||
w: ||||
 Add^c d2 D>f | gcc>d e e2 e | (e/f/)gba f (e/d/)c (B/A/) | =B/^c/dd c2 d d2 |] %79
w: ||||
w: ||||
w: ||||
w: ||||
w: ea- ger- ly, and brave- ly, With|cou- rage thus per- sue it, For|tis * a health, a health, To * ho- nest *|Rud- * dy Ro- ger Hew- ett.|
w: ||||
w: ||||
w: ||||
w: ||||
w: ||||
[K:C][M:2/2]"^Catch Club I / 13" x7 G | c2 Cc B>AGc | A2 FD G (A/B<)cd/ | B2 ce dBcA | %83
w: ||||
w: ||||
w: ||||
w: ||||
w: ||||
w: Of|all all the Ins- tru- ments, all|all all the Ins- tru- * ments that|are, none none none none none none|
w: ||||
w: ||||
w: ||||
w: ||||
 Bdec (de/f/e) f/g/ | (a/g/) (f/e/) (f/e/) (d/c/) c4 | e2 (c/d/) (e/f/) g2 eg | c2 fa d (c/B<)AG/ | %87
w: ||||
w: ||||
w: ||||
w: ||||
w: ||||
w: none none none none none * * * with the|Vi- * ol * can * com- * pare.|Mark mark * mark * mark how the|strings, how the strings their * or- der|
w: ||||
w: ||||
w: ||||
w: ||||
 Gc/d/eG FdEc | DBCA B,GC D/E/ | (F/G/A) (G/A/B) (c/C/ E/G/ c2) | z2 e/d/c d2 ge | %91
w: ||||
w: ||||
w: ||||
w: ||||
w: ||||
w: keep with a whet whet whet whet whet whet|whet whet whet whet whet whet whet and a|sweep * * sweep * * sweep, * * * *|But a- bove all all all|
w: ||||
w: ||||
w: ||||
w: ||||
 f2 gd Bg (f/e/) (d/c/) | g2 z g/g/ g/^f/ g/f/ g/f/ g/f/ | g/^f/ g/f/ g/f/ e/f/ g2 z e/d/ | %94
w: |||
w: |||
w: |||
w: |||
w: |||
w: all all all all, this still * a- *|bounds, With a zin- gle zin- gle zin- gle zin- gle|zin- gle zin- gle zin- gle zin- gle zing, And a|
w: |||
w: |||
w: |||
w: |||
 c2 G2 C3 z |][M:3/4]"^Catch Club II / 8" c4 e2 | c4 g2 | e3 d c2 | (g6 | g4) e2 | f2 d3 c | B6 | %102
w: ||||||||
w: ||||||||
w: ||||||||
w: ||||||||
w: ||||||||
w: zit zan zounds.||||||||
w: |Room, room,|room, room,|room for th'ex-|press,|* At|length here it|comes;|
w: ||||||||
w: ||||||||
w: ||||||||
 c3 G c2 | A6 | f3 c f2 | d3 g f2 | e3 d c2 | B3 A B2 | c6 | g4 z2 | e4 z2 | c4 A2 | B3 A G2 | %113
w: |||||||||||
w: |||||||||||
w: |||||||||||
w: |||||||||||
w: |||||||||||
w: |||||||||||
w: Lim- rick's our|own,|Lim- rick's our|own, be it|known, be it|known to all|Grums.|Hark!|hark!|hark! The|Guns of the|
w: |||||||||||
w: |||||||||||
w: |||||||||||
 c2 c2 c2 | A2 F2 D2 | G4 G2 | E2 E2 C2 | F2 F2 A2 | F2 F2 D2 | G2 G2 (d2 | e/f/) g3 (e2 | %121
w: ||||||||
w: ||||||||
w: ||||||||
w: ||||||||
w: ||||||||
w: ||||||||
w: to- wer ring,|ring it in|peals, we'll|drink round the|Bon- fires, we'll|drink round the|Bon- fires. Huz-|* * za, Huz-|
w: ||||||||
w: ||||||||
w: ||||||||
 e/f/ g2) a g2 | e4 cd | e3 f g2 | g2 e2 c2 | g2 c2 (fe | dc dB cd | ef ef g2) | c2 c2 f2 | e4 e2 | %130
w: |||||||||
w: |||||||||
w: |||||||||
w: |||||||||
w: |||||||||
w: |||||||||
w: * * za to the|Bells, To our|con- que- ring|Ar- my loud|Prai- ses, loud *|||Prai- ses let's|sing, and|
w: |||||||||
w: |||||||||
w: |||||||||
 g2 G2 e2 | c2 A2 f2 | a2 A2 d2 | B2 G2 B2 | c2 E2 A2 | G3 F G2 | C4 z2 |][K:Dmin][M:3/4] x4 A2 | %138
w: ||||||||
w: ||||||||
w: ||||||||
w: ||||||||
w: ||||||||
w: ||||||||
w: now Mon- sieur|French man, and|now Mon- sieur|French man have|at you, have|at you next|Spring.||
w: ||||||||
w: |||||||When|
w: ||||||||
 d4 A2 | F4 D2 | A4 =B2 | c4 ^c2 | d4 A2 | f4 ed | d4 ^c2 | d4 | ^c2 | d4 e2 | f4 A2 | F4 D2 | %150
w: ||||||||||||
w: ||||||||||||
w: ||||||||||||
w: ||||||||||||
w: ||||||||||||
w: ||||||||||||
w: ||||||||||||
w: ||||||||||||
w: V and|I to-|ge- ther|meet, We|make up|6 in *|House or|Street,|Yet|I and|V may|meet once|
w: ||||||||||||
 A4 G2 | F4 E2 | D4 F2 | A4 A,2 | D4 | e2 | f4 ^c2 | (d3 e) f2 | (d3 ^c) d2 | e4 e2 | A4 G2 | %161
w: |||||||||||
w: |||||||||||
w: |||||||||||
w: |||||||||||
w: |||||||||||
w: |||||||||||
w: |||||||||||
w: |||||||||||
w: more And|then we|2 can|make but|4,|But|when that|V * from|I * am|gone, A-|las poor|
w: |||||||||||
 (F3 G) A2 | F4 ED | D4 x2 |][K:C][M:6/4]"^Catch Club I / 4" x10 c2 | g4 e2 f4 d2 | e6- e4 | e2 | %168
w: |||||||
w: |||||||
w: |||||||
w: |||||||
w: |||||||
w: |||||||
w: |||||||
w: |||||||
w: I * can|make but *|one.|||||
w: |||Tis|wo- men makes us|love, *|'tis|
 d4 c2 c4 B2 | c6- c4 | c2 | B4 A2 a4 g2 | g6- g4 | g2 | G4 A2 F2 G4 | C6- C4 x2 |] %176
w: ||||||||
w: ||||||||
w: ||||||||
w: ||||||||
w: ||||||||
w: ||||||||
w: ||||||||
w: ||||||||
w: ||||||||
w: Love that makes us|sad, *|'tis|sad- ness makes us|drink *|and|drin- king makes us|mad. *|
[K:F][M:3/4] F2 | A4 F2 | B3 (c B)A | (G3 F) G2 | c3 c E2 | F2 G4 | C4 cB | (A3 B) A2 | d4 d2 | %185
w: |||||||||
w: |||||||||
w: |||||||||
w: |||||||||
w: |||||||||
w: |||||||||
w: |||||||||
w: A|Health, a|Health to * the|Nut * brown|Lass with the|Ha- zle|Eyes She that|has * good|Eyes has|
w: |||||||||
w: |||||||||
 d3 c d2 | e3 e f2 | f3 g e2 | f4 | A2 | c3 B c2 | d3 _e c2 | _e2 d2 d2 | (d2 c2) c2 | c4 =B2 | %195
w: ||||||||||
w: ||||||||||
w: ||||||||||
w: ||||||||||
w: ||||||||||
w: ||||||||||
w: ||||||||||
w: al- so good|Thighs, let it|pays, let it|pays|As|much to the|live- li- er|Gray they're as|good * by|night as|
w: ||||||||||
w: ||||||||||
 c4 cd | (e2 A2) a2 | a4 a2 | a2 f2 b2 | (b2 a2) ab | g2 g3 f | f4 | c2 | F2 c2 f2 | f4 d2 | %205
w: ||||||||||
w: ||||||||||
w: ||||||||||
w: ||||||||||
w: ||||||||||
w: ||||||||||
w: ||||||||||
w: day She that|has * good|Eyes has|al- so good|Thighs, * drink a-|way, drink a-|way|I'll|pledge Sir, i'll|pledge what|
w: ||||||||||
w: ||||||||||
 g4 g2 | g2 e2 g2 | (g6 | g4) g2 | g2 (ag) (fe) | f4 f2 | f2 d2 f2 | g3 g f2 | d2 (_ed c>)B | A4 | %215
w: ||||||||||
w: ||||||||||
w: ||||||||||
w: ||||||||||
w: ||||||||||
w: ||||||||||
w: ||||||||||
w: ho some|wine here some|wine|* to|mine And * to *|thine, to|thine and to|mine the Co-|lours are * * Di-|vine.|
w: ||||||||||
w: ||||||||||
 f2 | f4 a2 | a2 f2 a2 | b3 a gf | ef g2 (fe) | d3 e f2 | e4 ed | (^c3 B) c2 | d4 (dc) | B3 A G2 | %225
w: ||||||||||
w: ||||||||||
w: ||||||||||
w: ||||||||||
w: ||||||||||
w: ||||||||||
w: ||||||||||
w: But|Oh the|black Eyes, the|black give me as|much a- gain and *|let it be|Sack She that|has * good|Eyes has *|al- so good|
w: ||||||||||
w: ||||||||||
 c3 c d2 | B2 c4 | F4 |][K:Gmin][M:2/2]"^Catch Club II / 46" c2 cG _A2 AG | (FG)_AF G2 A=B | %230
w: |||||
w: |||Once in our lives, let us|drink * to our Wives, tho' their|
w: |||||
w: |||||
w: |||||
w: |||||
w: |||||
w: Thighs and a|bet- ter|knack.|||
w: |||||
w: |||||
 (cd) (ec) (de) (fd) | e8 | e2 ed c2 de | fedc =B2 (cd) | efgA (=Bc)dB | c6 z g | g2 gg ge (fg) | %237
w: |||||||
w: num- * bers * be * but *|small;|Heav'n take the best, and the|De- vil take the rest, and *|so we shall get rid * of them|all; To|this hear- ty wish, let each *|
w: |||||||
w: |||||||
w: |||||||
w: |||||||
w: |||||||
w: |||||||
w: |||||||
w: |||||||
 (_ag)fe d2 G2 | E2 C2 G2 G2 | C8 |] %240
w: |||
w: Man * take his dish, and|drink, drink, till he|fall.|
w: |||
w: |||
w: |||
w: |||
w: |||
w: |||
w: |||
w: |||

